X:1
T:The complaint of a sinner
T:John Farmer
T:Source : The Whole Book of Psalms---London---Musical Antiquarian Society---1844. First publication : London---Th.Est(e)---1592. Editor : André Vierendeels (23/08/16).
T:Notes : Original clefs : C1, C3, C4, F4 Editorial accidentals above the staff Note values have been halved             
T:The complaint of a sinner
T:©
T:©
T:©
C:John Farmer
Z:©
%%score [ 1 [ 2 3 ] 4 ]
L:1/8
Q:1/4=120
M:4/4
K:F
V:1 treble nm="Soprano" snm="S"
V:2 treble-8 nm="Tenor 1" snm="T 1"
V:3 treble-8 nm="Tenor 2" snm="T 2"
V:4 bass nm="Bass" snm="B"
V:1
 G4 G3 ^F | G2 A2 ^F4 || z2 ^F2 G2 A2 | B2 A2 A4 || z2 d2 d3 d | d2 _e2 d4 || z2 A2 A2 A2 | %7
w: Where right- eous-|ness doth say,|Lord, for my|sin- ful part,|in wrath thou|shoulds me pay,|ven- geance for|
 AD G2 ^F4 ||"^-natural" z2 F2 B2 B2 | c2 c2 d4 | z2 d2 _e2 d2 | c3 c B4 || z2 c2 B2 A2 | %13
w: my _ de- sert,|I can it|not de- ny,|but needs I|must con- fess,|how that con-|
 G2 G2 ^F4 || z2 B2 A2 d2 | c2 B2 A4 || z2 A2 A3 G | G2 ^F2 !fermata!G4 |] %18
w: tin- ual- ly,|thy laws I|do trans- gress,|thy laws I|do trans- gress.|
V:2
 d4 d3 d | d2 _e2 d4 || z2 d2 d3 d | g2 e2 ^f4 || z2 ^f2 g3 a | g2 g2 ^f4 || %6
w: Where right- eous-|ness doth say,|Lord, for my|sin- ful part,|in wrath thou|shoulds me pay,|
"^-natural" z2 d2 A2 ^F2 | A2 G2 A4 || z2 d2 B2 B2 | f2 f2 f4 | z2 f2 g2 f2 | f2 f2 f4 || %12
w: ven geance for|my de- sert,|I can it|not de- ny,|but needs I|must con- fess,|
 z2 f2 d3 d | d2 G2 A4 || z2 f2 f3 f | f2 d2 d4 || z2 f2 fe d2 | G2 c2 !fermata!d4 |] %18
w: how that con-|ti- nual- ly,|thy laws I|do trans- gress,|thy laws _ I|do trans- gress.|
V:3
 G4 B3 A | B2 c2 A4 || z2 A2 B2 d2 | d2 ^c2 d4 || z2 A2 B3 A | B2 c2 A4 || z2 f2 e2 d2 | %7
w: Where right- eous-|ness doth say,|Lord, for my|sin- ful part,|in wrath thou|shoulds me pay,|ven- geance for|
 d2 ^c2 d4 || z2 F2 G2 G2 | A2 A2 B4 | z2 F2 B2 B2 | c2 c2 d4 || z2 F2 G2 A2 | B2 c2 d4 || %14
w: my de- sert,|I can it|not de- ny,|but needs I|must con- fess,|how that con-|ti- nual- ly,|
 z2 d2 c3 B | A2 G2 F4 || z2 d2 f3 e | d2 c2 !fermata!=B4 |] %18
w: thy laws I|do trans- gress,|thy laws I|do trans- gress.|
V:4
 G,4 G,3 D, | G,2 C,2 D,4 || z2 D,2 G,2 ^F,2 | G,2 A,2 D,4 || z2 D,2 G,3 ^F, | G,2 C,2 D,4 || %6
w: Where right- eous-|ness doth say,|Lord, for my|sin- ful part,|in wrath thou|shoulds me pay,|
 z2 D,2 ^C,2 D,2 |"^#" F,2 E,2 D,4 || z2 D,2 _E,F, G,2 | F,4 B,,4 | z2 D,2 G,A, B,2- | %11
w: ven- geance for|my de- sert,|I can it not|de- ny,|but needs I must|
 B,2 A,2 B,4 || z2 A,2 B,2 F,2 | G,2 _E,2 D,4 || z2 B,,2 F,3 D, | F,2 B,,2 D,4 || z2 D,2 D3 G, | %17
w: _ con- fess,|how that con-|ti- nual- ly,|thy laws I|do trans- gress,|thy laws I|
 B,2 A,2 !fermata!G,4 |] %18
w: do trans- gress.|

